X:164
T:Windbroke
M:4/4
L:1/8
F:http://blackrosetheband.googlepages.com/ABCTUNES.ABC May 2009
C:Mike McGoldrick
K:Em
"Em"BEEE GAB(E|E) GAd B2AG|BEEE GAB"C"(c|c)BAG "D"B2AG|
"Em"BEEE GAB(E|E) GAd B2AB|"C"edde B3G|1 "D"A3G FGAc:|2 "D"A3G FGAz|
|:"Em"Begf efde|zedf efed|Begf efg"Am"a|za2g "D"fede|
"Em"Begf efde|zedf efeB| "C"c3A "G"B3G|1 "D"ABAG FGAz:|2 "D"ABAG FGAc||
T:Last Line Last Time
"Em"Begf efde|zedf efeB|"C"(c8|c)dAG "D"FGFD|"Em"E8||
